X: 10
T: Poor But Happy At 53
C: Paidi Ban O'Broin
Z: albe.mercuri
S: https://thesession.org/tunes/314#setting47654
R: reel
M: 4/4
L: 1/8
K: Gmaj
|:EFGA BE E2|cBAc BE E2|DEFG AD D2|BAGB ADFD|
EFGA B2 ed|edBA G2 (3EFG|BGEB AFDA|GEDF E4:|
K:D
|:edBA (3Bcd ef|gfed BA (3Bcd|edef g2 fg|affe e3 f|
PfePed PdBPBA|PAGPGF PFEPED|BGEB AFDA|GEDF E4:|

